src/assets/pictos/logo.svg

<svg fill="none" height="37" viewBox="0 0 28 37" width="28" xmlns="http://www.w3.org/2000/svg"><g fill="#fff"><path d="m10.117 18.1075c4.2835.4962 9.4327-1.0942 11.0449-7.0415.8867-3.27524.5854-5.87326-.8953-7.72201-2.8742-3.58582-9.2973-3.34134705-9.366-3.33804336-.0165 0-.1447-.00594664-.3608-.00594664-1.27385 0-5.61622.198221-8.29684 2.82465-1.574533 1.54679-2.3284347 3.70344-2.23527066 6.40982.03085136.88043.22067466 1.74813.56030566 2.56103.019628.0371.035562.0761.047573.1163 1.521022 3.5026 5.637412 5.7491 9.501432 6.1957zm-8.06961-10.15156c-.35634-.07864-.58146-.43126-.50282-.7876.89596-4.049 4.2895-5.34272 6.97937-5.71604.36163-.05017.69546.20231.74564.56394s-.20231.69547-.56394.74564c-2.27426.31452-5.13922 1.38425-5.87065 4.69124-.06687.30227-.33465.51759-.64422.51802-.04822.0005-.09634-.0046-.14338-.0152z"/><path d="m8.59729 31.7141h9.25031v2.643h-9.25031z"/><path d="m25.9562 8.36751c-.8154-.49753-2.0391-.12818-3.0255.33764-.0851.91589-.2512 1.82245-.4963 2.70905-1.6267 6.0028-6.3992 8.1013-10.8308 8.1013-4.14524-.0054-8.09049-1.7826-10.841362-4.8835.246452 3.9281.967322 9.2562 2.955482 13.1176h2.2366c.36491 0 .66073.2958.66073.6607s-.29582.6608-.66073.6608h-1.98222v7.2681c0 .3649.29582.6607.66074.6607h12.55406c.3649 0 .6607-.2958.6607-.6607v-.6608h-9.25033c-.72983 0-1.32148-.5916-1.32148-1.3214v-2.643c0-.7298.59165-1.3215 1.32148-1.3215h9.25033v-1.3214h-8.5896c-.36491 0-.66073-.2959-.66073-.6608s.29582-.6607.66073-.6607h9.0138c1.2276-1.0281 8.8261-7.7154 8.8261-15.8577 0-1.8501-.3964-3.0698-1.1417-3.52439zm-11.0343 16.85869c.2013.1321.3149.3632.2965.6033-.0185.2401-.1662.4512-.3854.5508-.2192.0997-.4753.0722-.6684-.0718l-2.9244-2.0469-2.92507 2.0482c-.29868.1959-.69892.1189-.90366-.1738-.20474-.2926-.13988-.695.14646-.9084l2.52997-1.7728-2.52997-1.7714c-.28634-.2135-.3512-.6159-.14646-.9085.20474-.2927.60498-.3697.90366-.1738l2.92507 2.0469 2.9251-2.0483c.1931-.1439.4492-.1714.6684-.0717.2192.0996.3668.3107.3853.5508s-.0951.4712-.2965.6032l-2.53 1.7728z"/></g></svg>

<svg width="28" height="37" viewBox="0 0 28 37" fill="none" xmlns="http://www.w3.org/2000/svg">
<path d="M10.117 18.1075C14.4005 18.6037 19.5497 17.0133 21.1619 11.066C22.0486 7.79076 21.7473 5.19274 20.2666 3.34399C17.3924 -0.24183 10.9693 0.00264295 10.9006 0.00594664C10.8841 0.00594664 10.7559 0 10.5398 0C9.26595 0 4.92358 0.198221 2.24296 2.82465C0.668427 4.37144 -0.0854747 6.52809 0.00768934 9.23447C0.0385407 10.1149 0.228364 10.9826 0.567995 11.7955C0.587623 11.8326 0.603557 11.8716 0.615568 11.9118C2.13659 15.4144 6.25298 17.6609 10.117 18.1075V18.1075ZM2.04739 7.95594C1.69105 7.8773 1.46593 7.52468 1.54457 7.16834C2.44053 3.11934 5.83407 1.82562 8.52394 1.4523C8.88557 1.40213 9.2194 1.65461 9.26958 2.01624C9.31976 2.37787 9.06727 2.71171 8.70564 2.76188C6.43138 3.0764 3.56642 4.14613 2.83499 7.45312C2.76812 7.75539 2.50034 7.97071 2.19077 7.97114C2.14255 7.97164 2.09443 7.96654 2.04739 7.95594V7.95594Z" fill="white"/>
<path d="M8.59729 31.7141H17.8476V34.3571H8.59729V31.7141Z" fill="white"/>
<path d="M25.9562 8.36751C25.1408 7.86998 23.9171 8.23933 22.9307 8.70515C22.8456 9.62104 22.6795 10.5276 22.4344 11.4142C20.8077 17.417 16.0352 19.5155 11.6036 19.5155C7.45836 19.5101 3.51311 17.7329 0.762238 14.632C1.00869 18.5601 1.72956 23.8882 3.71772 27.7496H5.95432C6.31923 27.7496 6.61505 28.0454 6.61505 28.4103C6.61505 28.7752 6.31923 29.0711 5.95432 29.0711H3.9721V36.3392C3.9721 36.7041 4.26792 36.9999 4.63284 36.9999H17.1869C17.5518 36.9999 17.8476 36.7041 17.8476 36.3392V35.6784H8.59727C7.86744 35.6784 7.27579 35.0868 7.27579 34.357V31.714C7.27579 30.9842 7.86744 30.3925 8.59727 30.3925H17.8476V29.0711H9.258C8.89309 29.0711 8.59727 28.7752 8.59727 28.4103C8.59727 28.0454 8.89309 27.7496 9.258 27.7496H18.2718C19.4994 26.7215 27.0979 20.0342 27.0979 11.8919C27.0979 10.0418 26.7015 8.8221 25.9562 8.36751ZM14.9219 25.2262C15.1232 25.3583 15.2368 25.5894 15.2184 25.8295C15.1999 26.0696 15.0522 26.2807 14.833 26.3803C14.6138 26.48 14.3577 26.4525 14.1646 26.3085L11.2402 24.2616L8.31513 26.3098C8.01645 26.5057 7.61621 26.4287 7.41147 26.136C7.20673 25.8434 7.27159 25.441 7.55793 25.2276L10.0879 23.4548L7.55793 21.6834C7.27159 21.4699 7.20673 21.0675 7.41147 20.7749C7.61621 20.4822 8.01645 20.4052 8.31513 20.6011L11.2402 22.648L14.1653 20.5997C14.3584 20.4558 14.6145 20.4283 14.8337 20.528C15.0529 20.6276 15.2005 20.8387 15.219 21.0788C15.2375 21.3189 15.1239 21.55 14.9225 21.682L12.3925 23.4548L14.9219 25.2262Z" fill="white"/>
</svg>
